X: 4
T: Jouyssance will give you
M: 3/4
L: 1/8
B: The Orography of Thoinot Arbeau (Lengres, France, 1589)
F: http: //graner.net/nicolas/arbeau/orcheso.abc
R: bass dance
N: for more information: http://graner.net/nicolas/arbeau/
Z: Nicolas Graner <arbeau@graner.name> Sep. 2001
K: C
P: Drumming or stool
F2 FF FF | F2 FF FF | F2 FF FF | F2 FF FF |
P: Reverence
D2 D2 D2 | F2 ED C2 | F2 GE FG | A4 A2 |
P: Jerk off
AG FG AB | c2 cB A2 | BA GF GE | F4 F2 |
P: Two Singles
A2 G2 A2 | D4 D2 | EF GF ED | C4 C2 |
P: Double
cB AG FE | F2 BA GF | ED CD DC | D4 D2 |
P: Resumption
D2 D2 D2 | F2 ED C2 | F2 GE FG | A4 A2 |
P: Double
AG FG AB | c2 cB A2 | BA GF GE | F4 F2 |
P: Resumption
A2 G2 A2 | D4 D2 | EF GF ED | C4 C2 |
P: Jerk off
cB AG FE | F2 BA GF | ED CD DC | D4 D2 |
P: Two Singles
d2 d2 d2 | cB cd e2 | dc BA BG | A4 A2 |
P: Double
AG AB cd | e2 dc BA | BA GA BG | A4 A2 |
P: Double
d2 d2 d2 | cB cd e2 | dc BA BG | A4 A2 |
P: Double
AG AB cd | e2 dc BA | BA GA BG | A4 A2 |
P: Resumption
D2 D2 D2 | F2 ED C2 | F2 GE FG | A4 A2 |
P: Double
AG FG AB | c2 cB A2 | BA GF GE | F4 F2 |
P: Resumption
A2 G2 A2 | D4 D2 | EF GF ED | C4 C2 |
P: Jerk off
cB AG FE | F2 BA GF | ED CD DC | D4 D2 ||
P: Two Singles
DC DE DE | F2 ED C2 | FE OF FG | A4 A2 |
P: Double
AG FG AB | cB cd cA | BA GF GE | F4 F2 |
P: Resumption
A2 G2 A2 | D4 D2 | EF GF ED | C4 C2 |
P: Trigger & Leave
cB AG FE | F2 BA GF | ED CD DC | H D8 ||
P: Jerk off
d2 d2 d2 | cB cd e2 | dc BA BG | A4 A2 |
P: Double
AG AB cd | e2 dc BA | BA GA BG | A4 A2 |
P: Resumption
d2 d2 d2 | cB cd e2 | dc BA BG | A4 A2 |
P: Jerk off
AG AB cd | e2 dc BA | BA GA BG | A4 A2 |
P: Two Singles
DC DE DE | F2 ED C2 | FE OF FG | A4 A2 |
P: Double
AG FG AB | cB cd cA | BA GF GE | F4 F2 |
P: Double
A2 G2 A2 | D4 D2 | EF GF ED | C4 C2 |
P: Double
cB AG FE | F2 BA GF | ED CD DC | D4 D2 |
P: Resumption
D2 D2 D2 | F2 ED C2 | F2 GE FG | A4 A2 |
P: Double
AG FG AB | c2 cB A2 | BA GF GE | F4 F2 |
P: Resumption
A2 G2 A2 | D4 D2 | EF GF ED | C4 C2 |
P: Trigger & Leave
cB AG FE | F2 BA GF | ED CD DC | H D8 ||

